app/dist/common/images/gem-co-ltd.svg

<svg height="18" viewBox="0 0 18 18" width="18" xmlns="http://www.w3.org/2000/svg"><path d="m0 0h18v18h-18z" fill="#f0f3fa"/><path d="m12 11v-1h-3.9c-.4 0-1.1-.22-1.1-1s.7-1 1.1-1h5.9v5h-7.24c-1.93 0-3.76-1.77-3.76-4 0-2.32 1.76-4 3.76-4h6.24c.4 0 1 .31 1 .97s-.6 1.03-1 1.03h-5.81c-1.2 0-2.19.6-2.19 2 0 1.35 1.03 2 2.19 2z" fill="#199361"/></svg>

<!-- by TradingView --><svg width="18" height="18" viewBox="0 0 18 18" xmlns="http://www.w3.org/2000/svg"><path fill="#F0F3FA" d="M0 0h18v18H0z"/><path d="M12 11v-1H8.1C7.7 10 7 9.78 7 9s.7-1 1.1-1H14v5H6.76C4.83 13 3 11.23 3 9c0-2.32 1.76-4 3.76-4H13c.4 0 1 .31 1 .97C14 6.63 13.4 7 13 7H7.19C5.99 7 5 7.6 5 9c0 1.35 1.03 2 2.19 2H12Z" fill="#199361"/></svg>
